X:1
T:Around the Corner
M:4/4
L:1/4
K:G
 B,| E2 E3/2 E/2| E B, E F| G2 G3/2 G/2| G2 z| A| F2 F3/2 F/2| F A G F|\
 E2 E3/2 E/2| E2 F| G| A C C C| C2 E F| G B, B, B,| B,2 E| F| G3/2 G/2 G3/2 G/2|\
 F A G F| E4-| E2 z2| G/2 G G/2 G G-| G e d2| G/2 G G/2 A G| F4| G/2 G G/2 G F|\
 E/2 E E/2 E2| D/2 D D/2 E F| G4|
